static/icons/category-dimmer.svg

<?xml version="1.0" encoding="UTF-8" standalone="no"?>
<svg
   xmlns:dc="http://purl.org/dc/elements/1.1/"
   xmlns:cc="http://creativecommons.org/ns#"
   xmlns:rdf="http://www.w3.org/1999/02/22-rdf-syntax-ns#"
   xmlns:svg="http://www.w3.org/2000/svg"
   xmlns="http://www.w3.org/2000/svg"
   xmlns:sodipodi="http://sodipodi.sourceforge.net/DTD/sodipodi-0.dtd"
   xmlns:inkscape="http://www.inkscape.org/namespaces/inkscape"
   version="1.1"
   width="24"
   height="24"
   viewBox="0 0 24 24"
   id="svg4"
   sodipodi:docname="category-dimmer.svg"
   inkscape:version="0.92.1 unknown">
  <metadata
     id="metadata10">
    <rdf:RDF>
      <cc:Work
         rdf:about="">
        <dc:format>image/svg+xml</dc:format>
        <dc:type
           rdf:resource="http://purl.org/dc/dcmitype/StillImage" />
      </cc:Work>
    </rdf:RDF>
  </metadata>
  <defs
     id="defs8" />
  <sodipodi:namedview
     pagecolor="#ffffff"
     bordercolor="#666666"
     borderopacity="1"
     objecttolerance="10"
     gridtolerance="10"
     guidetolerance="10"
     inkscape:pageopacity="0"
     inkscape:pageshadow="2"
     inkscape:window-width="640"
     inkscape:window-height="480"
     id="namedview6"
     showgrid="false"
     inkscape:zoom="15.625"
     inkscape:cx="-0.992"
     inkscape:cy="12"
     inkscape:current-layer="svg4" />
  <path
     d="M 12,17.30504 V 6.6949602 A 5.3050398,5.3050398 0 0 1 17.30504,12 5.3050398,5.3050398 0 0 1 12,17.30504 M 19.073386,14.926614 22,12 19.073386,9.073386 V 4.9266136 H 14.926614 L 12,2 9.0733864,4.9266136 H 4.9266136 V 9.073386 L 2,12 4.9266136,14.926614 v 4.146772 H 9.0733864 L 12,22 14.926614,19.073386 h 4.146772 z"
     id="path2"
     inkscape:connector-curvature="0"
     style="stroke-width:0.88417327" />
</svg>

<svg xmlns="http://www.w3.org/2000/svg" version="1.1" viewBox="0 0 24 24">
  <path d="m12 17.305v-10.61a5.305 5.305 0 0 1 5.305 5.305 5.305 5.305 0 0 1 -5.305 5.305m7.073-2.378 2.927-2.927-2.927-2.9266v-4.1468h-4.146l-2.927-2.9266-2.9266 2.9266h-4.1468v4.1468l-2.9266 2.9266 2.9266 2.927v4.1468h4.1468l2.9266 2.926 2.927-2.927h4.1468z"/>
</svg>
